src/symbolic/status/mail-attachment-symbolic.svg

<svg xmlns="http://www.w3.org/2000/svg" width="16" height="16"><path d="M9 0C7.36 0 6 1.35 6 3v8h2V3c0-1 1-1 1-1s1 0 1 1v8.5c0 1.39-1.11 2.5-2.5 2.5S5 12.89 5 11.5V4H3v7.5C3 13.97 5.03 16 7.5 16s4.5-2.03 4.5-4.5V3c0-1.65-1.36-3-3-3z" fill="#444"/></svg>

<svg xmlns="http://www.w3.org/2000/svg" width="16" height="16" version="1.1">
 <path style="fill:#444444" d="M 9,0 C 7.36,0 6,1.35 6,3 V 11 H 8 V 3 C 8,2 9,2 9,2 9,2 10,2 10,3 V 11.5 C 10,12.89 8.89,14 7.5,14 6.11,14 5,12.89 5,11.5 V 4 H 3 V 11.5 C 3,13.97 5.03,16 7.5,16 9.97,16 12,13.97 12,11.5 V 3 C 12,1.35 10.64,0 9,0 Z"/>
</svg>
